X: 180
T:Round O,A. HA.179
M:C
L:1/8
Q:1/4=180
S:Henry Atkinson's original MS,Hartburn,N'umberland,1694.
O:England
A:Hartburn,Northumberland
N:Illegible comments in pencil in margin CGP
H:1/8
Z:vmp.Neil Brookes, Jan.2004
K:D
dc|d2A2B2dc|d2D2E2dc|d2A2 BcdA|F2(ED)D2||!
FG|A2A2A2Bc|d2d2dedc|B2B2B2cd|efed c2 dc|!
d2A2B2 dc|d2D2E2 dc|d2A2BcdA|F2(ED)D2 de|!
fedc B2 (cd)|edcB A2 fe|d2 ef gfed|cdcB B2"see notes"|]
